_uploads/ornament-dc-outline.svg

<svg width="40" height="40" viewBox="0 0 40 40" fill="none" xmlns="http://www.w3.org/2000/svg">
<path fill-rule="evenodd" clip-rule="evenodd" d="M8.26001 14.9857H13.26H13.28C16.73 14.9857 18.91 13.2973 18.91 10.48C18.91 7.66269 16.71 5.99428 13.26 5.99428H8.26001V14.9857ZM21.09 10.5C21.09 13.5271 23.37 15.2854 26.76 15.2854H26.78C27.7525 15.3469 28.725 15.1643 29.6088 14.7542C30.4926 14.3442 31.2596 13.7197 31.84 12.9377L29.6 11.7788C29.3081 12.2368 28.8972 12.607 28.411 12.8498C27.9249 13.0926 27.3819 13.199 26.84 13.1575C24.99 13.1575 23.76 12.2183 23.76 10.5C23.76 8.78162 24.99 7.85251 26.84 7.85251C27.3718 7.8181 27.9032 7.92584 28.3795 8.16464C28.8558 8.40344 29.2598 8.76468 29.55 9.21121L31.8 8.05232C31.2349 7.28489 30.4874 6.6702 29.6249 6.26378C28.7624 5.85737 27.8122 5.67204 26.86 5.72453C23.37 5.72453 21.09 7.47287 21.09 10.5ZM10.8 8.08002H12.99C14.91 8.08002 16.17 8.90002 16.17 10.49C16.17 12.08 14.91 12.9 12.99 12.9H10.8V8.08002Z" fill="black"/>
<path fill-rule="evenodd" clip-rule="evenodd" d="M39 16.8082V10H40V16.8082C40 22.4442 31.0451 27 20 27C8.95492 27 0 22.4544 0 16.8183V10H1V16.8183C1 19.0633 2.80576 21.3483 6.31145 23.1314C9.76297 24.8869 14.6011 26 20 26C25.3985 26 30.2365 24.8845 33.6881 23.1265C37.1937 21.341 39 19.0535 39 16.8082Z" fill="black"/>
<path fill-rule="evenodd" clip-rule="evenodd" d="M39 23.4077V17H40V23.4077C40 28.7122 31.0451 33 20 33C8.95492 33 0 28.7122 0 23.4077V17H1V23.4077C1 25.4553 2.76155 27.5997 6.29036 29.2913C9.74725 30.9484 14.5932 32 20 32C25.4068 32 30.2528 30.9484 33.7096 29.2913C37.2385 27.5997 39 25.4553 39 23.4077Z" fill="black"/>
<path fill-rule="evenodd" clip-rule="evenodd" d="M39 29.8082V23H40V29.8082C40 35.4442 31.0451 40 20 40C8.95492 40 0 35.4442 0 29.8082V23H1V29.8082C1 32.0535 2.80625 34.341 6.31195 36.1265C9.76346 37.8845 14.6015 39 20 39C25.3985 39 30.2365 37.8845 33.6881 36.1265C37.1937 34.341 39 32.0535 39 29.8082Z" fill="black"/>
<path fill-rule="evenodd" clip-rule="evenodd" d="M33.6773 17.0392C37.1731 15.2039 39 12.8422 39 10.5C39 8.15779 37.1731 5.79608 33.6773 3.96078C30.2283 2.15004 25.3943 1 20 1C14.6057 1 9.77171 2.15004 6.3227 3.96078C2.82688 5.79608 1 8.15779 1 10.5C1 12.8422 2.82688 15.2039 6.3227 17.0392C9.77171 18.85 14.6057 20 20 20C25.3943 20 30.2283 18.85 33.6773 17.0392ZM20 21C31.0457 21 40 16.299 40 10.5C40 4.70101 31.0457 0 20 0C8.9543 0 0 4.70101 0 10.5C0 16.299 8.9543 21 20 21Z" fill="black"/>
</svg>

<svg width="40" height="40" fill="none" xmlns="http://www.w3.org/2000/svg"><path fill-rule="evenodd" clip-rule="evenodd" d="M8.26 14.986h5.02c3.45 0 5.63-1.689 5.63-4.506s-2.2-4.486-5.65-4.486h-5v8.992zM21.09 10.5c0 3.027 2.28 4.785 5.67 4.785h.02a5.845 5.845 0 0 0 5.06-2.347l-2.24-1.16a2.998 2.998 0 0 1-2.76 1.38c-1.85 0-3.08-.94-3.08-2.658s1.23-2.647 3.08-2.647a3.003 3.003 0 0 1 2.71 1.358l2.25-1.159a5.739 5.739 0 0 0-4.94-2.327c-3.49 0-5.77 1.748-5.77 4.775zM10.8 8.08h2.19c1.92 0 3.18.82 3.18 2.41 0 1.59-1.26 2.41-3.18 2.41H10.8V8.08z" fill="#000"/><path fill-rule="evenodd" clip-rule="evenodd" d="M39 16.808V10h1v6.808C40 22.444 31.045 27 20 27S0 22.454 0 16.818V10h1v6.818c0 2.245 1.806 4.53 5.311 6.313C9.763 24.887 14.601 26 20 26c5.398 0 10.236-1.116 13.688-2.873C37.194 21.34 39 19.053 39 16.808z" fill="#000"/><path fill-rule="evenodd" clip-rule="evenodd" d="M39 23.408V17h1v6.408C40 28.712 31.045 33 20 33S0 28.712 0 23.408V17h1v6.408c0 2.047 1.762 4.192 5.29 5.883C9.747 30.948 14.593 32 20 32s10.253-1.052 13.71-2.709C37.239 27.6 39 25.455 39 23.408z" fill="#000"/><path fill-rule="evenodd" clip-rule="evenodd" d="M39 29.808V23h1v6.808C40 35.444 31.045 40 20 40S0 35.444 0 29.808V23h1v6.808c0 2.245 1.806 4.533 5.312 6.319C9.763 37.885 14.602 39 20 39c5.398 0 10.236-1.115 13.688-2.873C37.194 34.34 39 32.053 39 29.808zM33.677 17.04C37.173 15.204 39 12.842 39 10.5c0-2.342-1.827-4.704-5.323-6.54C30.228 2.15 25.394 1 20 1S9.772 2.15 6.323 3.96C2.827 5.797 1 8.159 1 10.5c0 2.342 1.827 4.704 5.323 6.54C9.772 18.85 14.606 20 20 20s10.228-1.15 13.677-2.96zM20 21c11.046 0 20-4.701 20-10.5S31.046 0 20 0 0 4.701 0 10.5 8.954 21 20 21z" fill="#000"/></svg>
